dist/svg/backup.svg

<svg width="16" height="16" viewBox="0 0 16 16" fill="rgb(34, 34, 34)" xmlns="http://www.w3.org/2000/svg"><title>backup</title><path d="M15 8.00001C14.958 11.834 11.84 14.925 8 14.925C5.465 14.925 3.246 13.578 2.017 11.561L2 11.53L3.73 10.53C4.618 12 6.208 12.968 8.024 12.968C10.785 12.968 13.024 10.729 13.024 7.96801C13.024 5.20701 10.785 2.96801 8.024 2.96801C6.38 2.96801 4.921 3.76201 4.01 4.98701L4.001 5.00001L6.001 7.00001H1.001V2.00001L2.571 3.57001C3.865 1.98901 5.816 0.988007 8.001 0.988007C11.867 0.988007 15.001 4.12201 15.001 7.98801C15.001 7.99201 15.001 7.99701 15.001 8.00101V8.00001H15ZM8 5.00001V9.00001H11V8.00001H9V5.00001H8Z" fill="rgb(34, 34, 34)" fill-opacity="1.00"/></svg>

<!-- Generated by Trend Micro Style Portal -->
<svg version="1.1" xmlns="http://www.w3.org/2000/svg" width="16" height="16" viewBox="0 0 16 16">
  <title>backup</title>
  <path fill="rgb(34,34,34)" d="M15 8c-0.042 3.834-3.16 6.925-7 6.925-2.535 0-4.754-1.347-5.983-3.364l-0.017-0.031 1.73-1c0.888 1.47 2.478 2.438 4.294 2.438 2.761 0 5-2.239 5-5s-2.239-5-5-5c-1.644 0-3.103 0.794-4.014 2.019l-0.009 0.013 2 2h-5v-5l1.57 1.57c1.294-1.581 3.245-2.582 5.43-2.582 3.866 0 7 3.134 7 7 0 0.004 0 0.009-0 0.013v-0.001zM14.76 9.86v0 0 0zM8 5v4h3v-1h-2v-3h-1z"></path>
</svg>
